X: 1
T: Johnny Harling's
M: 4/4
L: 1/8
R: reel
K: Dmaj
DE|:FA (3ABA dFAd|Jf2af edcd|BE (3edB ABde|{de}dBAF EDB,E|
FA (3BAF AFEF|DB,GA BAdb|{ab}afed (3Bcd Af|1 afea fddA|2 afea fdd|]
e|Jf2Bc dfbf|aA (3cBA dBcA|bB (3dcB FBd^G|Acac ~B3c|
dFAd Jf2aA|DB,GA (3Bcd bf|afed (3Bcd Af|afea fdd:|
